48x48/apps/denemo.svg

<svg height="48" width="48" xmlns="http://www.w3.org/2000/svg"><path d="m8.5 5c-.831 0-1.5.669-1.5 1.5v5c0 .831.669 1.5 1.5 1.5h2.5v24h-2.5c-.831 0-1.5.669-1.5 1.5v5c0 .831.669 1.5 1.5 1.5h11.5c11.046 0 20-8.954 20-20s-8.954-20-20-20h-6.5z" opacity=".2"/><path d="m8.5 4c-.831 0-1.5.669-1.5 1.5v5c0 .831.669 1.5 1.5 1.5h2.5v24h-2.5c-.831 0-1.5.669-1.5 1.5v5c0 .831.669 1.5 1.5 1.5h11.5c11.046 0 20-8.954 20-20s-8.954-20-20-20h-6.5z" fill="#89898b"/><path d="m19 12h1c6.722 0 12 5.278 12 12s-5.278 12-12 12h-1z" opacity=".4"/><path d="m8.5 4c-.831 0-1.5.669-1.5 1.5v1c0-.831.669-1.5 1.5-1.5h11.5c10.878 0 19.722 8.686 19.988 19.5.004-.167.012-.332.012-.5 0-11.046-8.954-20-20-20zm0 32c-.831 0-1.5.669-1.5 1.5v1c0-.831.669-1.5 1.5-1.5h2.5v-1z" fill="#f4f4f7" opacity=".2"/><circle cx="36" cy="37" opacity=".2" r="11"/><circle cx="36" cy="36" fill="#ffa941" r="11"/><g fill="#f4f4f7"><circle cx="36" cy="39" r="4"/><path d="m38 29h2v10h-2z"/></g></svg>

<svg xmlns="http://www.w3.org/2000/svg" width="48" height="48" version="1"><path style="opacity:.2" d="M8.5 5C7.669 5 7 5.669 7 6.5v5c0 .831.669 1.5 1.5 1.5H11v24H8.5c-.831 0-1.5.669-1.5 1.5v5c0 .831.669 1.5 1.5 1.5H20c11.046 0 20-8.954 20-20S31.046 5 20 5h-6.5z"/><path style="fill:#89898b" d="M8.5 4C7.669 4 7 4.669 7 5.5v5c0 .831.669 1.5 1.5 1.5H11v24H8.5c-.831 0-1.5.669-1.5 1.5v5c0 .831.669 1.5 1.5 1.5H20c11.046 0 20-8.954 20-20S31.046 4 20 4h-6.5z"/><path style="opacity:.4" d="M19 12h1c6.722 0 12 5.278 12 12s-5.278 12-12 12h-1z"/><path style="fill:#f4f4f7;opacity:.2" d="M8.5 4C7.669 4 7 4.669 7 5.5v1C7 5.669 7.669 5 8.5 5H20c10.878 0 19.722 8.686 19.988 19.5.004-.167.012-.332.012-.5 0-11.046-8.954-20-20-20H8.5zm0 32c-.831 0-1.5.669-1.5 1.5v1c0-.831.669-1.5 1.5-1.5H11v-1H8.5z"/><circle style="opacity:.2" cx="36" cy="37" r="11"/><circle style="fill:#ffa941" cx="36" cy="36" r="11"/><circle style="fill:#f4f4f7" cx="36" cy="39" r="4"/><path style="fill:#f4f4f7" d="M38 29h2v10h-2z"/></svg>
